!!!OTL: Minnelied
!!!ARE: Europa, Mitteleuropa, Deutschland
!!!SCT: A0130
!!!YEM: Copyright 1995, estate of Helmut Schaffrath.
**kern
*ICvox
*Ivox
*M4/2
*k[b-]
*F:
{1ff
2ee
2dd
=1
1.cc
2b-
=2
2.a
4g
4f
4g
2e
=3
1d
2r}
{2dd
=4
2cc
2dd
1ee
=5
2r
2ee
2ff
2dd
=6
1cc
2r}
{2cc
=7
2dd
2ee
2a
2a
=8
2.cc
4b-
4a
4b-
2g
=9
1f
2r}
{2f
=10
2g
2a
1d
=11
2r
2a
2b-
2cc
=12
1a
2r}
{2a
=13
2dd
2dd
2cc
2ff
=14
2ee
2dd
2a
2a
=15
2cc
2cc
2dd}
{2ff
=16
4.ee
8dd
4cc
4b-
4a
8g
8f
2g
=17
1f
1r}
==
!!!AGN: Romanze, Ballade, Lied
!! Pet. Schoeffer 1513 No. 7.
!!!ONB: ESAC (Essen Associative Code) Database: ALTDEU
!!!AMT: simple quadruple
!!!AIN: vox
!!!EED: Helmut Schaffrath
!!!EEV: 1.0
*-
